images/oiler.svg

<svg height="250" viewBox="0 0 250 250" width="250" xmlns="http://www.w3.org/2000/svg"><path d="m241.75 125.5c0 64.375-52.125 116.5-116.5 116.5s-116.5-52.125-116.5-116.5 52.125-116.625 116.5-116.625 116.5 52.25 116.5 116.625"/><g fill="#f3e6ac"><path d="m85.25 94c7.5-8.25 18.25-13.25 31.375-13.25 17.25 0 30.5 8.875 37.375 22.25l45.125 6c-7.625-38.5-40.375-64.25-82.5-64.25-34 0-62 16.625-75.5 43.375zm0 0"/><path d="m168.375 103.125c3.5 6.75 5.375 14.75 5.375 23.375 0 25.5-16.75 45.625-42.875 45.625-26.25 0-43-20.125-43-45.625 0-12.875 4.25-24.25 11.625-32.5l-44.125-5.875c-5.75 11.125-8.875 24.125-8.875 38.25 0 48 36.25 81.625 84.5 81.625s84.25-33.625 84.25-81.625c0-6-.625-11.875-1.625-17.375zm0 0"/></g></svg>

<!-- Generator: Adobe Illustrator 23.1.1, SVG Export Plug-In . SVG Version: 6.00 Build 0)  -->
<svg xmlns="http://www.w3.org/2000/svg" xmlns:xlink="http://www.w3.org/1999/xlink" width="250px" height="250px" viewBox="0 0 250 250" version="1.1">
<g id="surface1">
<path style=" stroke:none;fill-rule:nonzero;fill:rgb(0%,0%,0%);fill-opacity:1;" d="M 241.75 125.5 C 241.75 189.875 189.625 242 125.25 242 C 60.875 242 8.75 189.875 8.75 125.5 C 8.75 61.125 60.875 8.875 125.25 8.875 C 189.625 8.875 241.75 61.125 241.75 125.5 "/>
<path style=" stroke:none;fill-rule:nonzero;fill:rgb(95.294118%,90.196079%,67.450982%);fill-opacity:1;" d="M 85.25 94 C 92.75 85.75 103.5 80.75 116.625 80.75 C 133.875 80.75 147.125 89.625 154 103 L 199.125 109 C 191.5 70.5 158.75 44.75 116.625 44.75 C 82.625 44.75 54.625 61.375 41.125 88.125 Z M 85.25 94 "/>
<path style=" stroke:none;fill-rule:nonzero;fill:rgb(95.294118%,90.196079%,67.450982%);fill-opacity:1;" d="M 168.375 103.125 C 171.875 109.875 173.75 117.875 173.75 126.5 C 173.75 152 157 172.125 130.875 172.125 C 104.625 172.125 87.875 152 87.875 126.5 C 87.875 113.625 92.125 102.25 99.5 94 L 55.375 88.125 C 49.625 99.25 46.5 112.25 46.5 126.375 C 46.5 174.375 82.75 208 131 208 C 179.25 208 215.25 174.375 215.25 126.375 C 215.25 120.375 214.625 114.5 213.625 109 Z M 168.375 103.125 "/>
</g>
</svg>
